Catalina-dark/actions/22/path-intersection.svg

<svg xmlns="http://www.w3.org/2000/svg" viewBox="0 0 22 22">
  <defs id="defs3051">
    <style type="text/css" id="current-color-scheme">
      .ColorScheme-Text {
        color:#f2f2f2;
      }
      .ColorScheme-Highlight {
        color:#3daee9;
      }
      </style>
  </defs>
 <path 
     style="fill:currentColor;fill-opacity:1;stroke:none" 
     d="m 12.357702,3 a 6.0156658,6.0156658 0 0 0 -1.738903,0.4647519 l 0.673629,1.1671019 A 4.6788512,4.6788512 0 0 1 12.357702,4.3472585 L 12.357702,3 Z m 1.336815,0.00261 0,1.3472585 a 4.6788512,4.6788512 0 0 1 1.065274,0.2819843 L 15.430809,3.4699739 A 6.0156658,6.0156658 0 0 0 13.694517,3.0026109 Z M 9.462141,4.1357703 A 6.0156658,6.0156658 0 0 0 8.1879896,5.4099217 L 9.3550913,6.0809399 A 4.6788512,4.6788512 0 0 1 10.130548,5.2976501 L 9.462141,4.1357703 Z m 7.127938,0 -0.67102,1.1671017 A 4.6788512,4.6788512 0 0 1 16.70235,6.078329 L 17.86423,5.4099217 A 6.0156658,6.0156658 0 0 0 16.590079,4.1357703 Z m 1.945169,2.4308094 -1.167102,0.6736292 a 4.6788512,4.6788512 0 0 1 0.284596,1.0652741 l 1.347258,0 A 6.0156658,6.0156658 0 0 0 18.535248,6.5665797 Z M 7.5221932,6.5691865 A 6.0156658,6.0156658 0 0 0 7.0548303,8.305483 l -0.044386,0 0,1.3368147 0.041775,0 A 6.0156658,6.0156658 0 0 0 12.357702,14.94517 l 0,0.04438 0.668408,0 0.668407,0 0,-0.04177 A 6.0156658,6.0156658 0 0 0 15.43342,14.483028 L 14.759791,13.31593 a 4.6788512,4.6788512 0 0 1 -1.065274,0.281984 l 0,-5.292428 -5.2924285,0 A 4.6788512,4.6788512 0 0 1 8.6840731,7.2402089 L 7.5221932,6.5691906 Z M 3,8.305483 l 0,2.673629 1.3368146,0 0,-1.3368143 1.3368146,0 0,-1.3368147 -1.3368146,0 -1.3368146,0 z m 5.3994778,1.3368147 3.9582242,0 0,3.9556133 A 4.6788512,4.6788512 0 0 1 8.3994778,9.6422977 Z m 9.2506522,0 a 4.6788512,4.6788512 0 0 1 -0.281984,1.0652743 l 1.161881,0.671018 a 6.0156658,6.0156658 0 0 0 0.467362,-1.7362923 l -1.347259,0 z m -0.953002,2.2245433 a 4.6788512,4.6788512 0 0 1 -0.775456,0.78329 l 0.668407,1.16188 A 6.0156658,6.0156658 0 0 0 17.86423,12.53786 L 16.697128,11.866841 Z M 3,12.315927 l 0,1.336815 1.3368146,0 0,-1.336815 -1.3368146,0 z m 0,2.673629 0,1.336815 1.3368146,0 0,-1.336815 -1.3368146,0 z m 9.357702,1.336815 0,1.336814 -1.336814,0 0,1.336815 2.673629,0 0,-1.336815 0,-1.336814 -1.336815,0 z M 3,17.663185 3,19 l 1.3368146,0 0,-1.336815 -1.3368146,0 z m 2.6736292,0 0,1.336815 1.3368147,0 0,-1.336815 -1.3368147,0 z m 2.6736293,0 0,1.336815 1.3368146,0 0,-1.336815 -1.3368146,0 z"
     class="ColorScheme-Text"
     />
 <path 
     style="fill:currentColor;fill-opacity:0.6;stroke:naone" 
     class="ColorScheme-Text"
     d="m 12.357702,9.6422977 -3.9556133,0.028715 a 4.6788512,4.6788512 0 0 0 3.9556133,3.9268983 l 0,-3.955613 z"
     />
</svg>

<svg viewBox="0 0 22 22" xmlns="http://www.w3.org/2000/svg">
<defs>
<style id="current-color-scheme" type="text/css">.ColorScheme-Text {
        color:#f2f2f2;
      }
      .ColorScheme-Highlight {
        color:#3daee9;
      }</style>
</defs>
<path class="ColorScheme-Text" d="m12.358 3a6.0157 6.0157 0 0 0-1.7389 0.46475l0.67363 1.1671a4.6789 4.6789 0 0 1 1.0653-0.2846v-1.3473zm1.3368 0.00261v1.3473a4.6789 4.6789 0 0 1 1.0653 0.28198l0.67102-1.1619a6.0157 6.0157 0 0 0-1.7363-0.46736zm-4.2324 1.1332a6.0157 6.0157 0 0 0-1.2742 1.2742l1.1671 0.67102a4.6789 4.6789 0 0 1 0.77546-0.78329l-0.66841-1.1619zm7.1279 0-0.67102 1.1671a4.6789 4.6789 0 0 1 0.78329 0.77546l1.1619-0.66841a6.0157 6.0157 0 0 0-1.2742-1.2742zm1.9452 2.4308-1.1671 0.67363a4.6789 4.6789 0 0 1 0.2846 1.0653h1.3473a6.0157 6.0157 0 0 0-0.46475-1.7389zm-11.013 0.0026068a6.0157 6.0157 0 0 0-0.46736 1.7363h-0.044386v1.3368h0.041775a6.0157 6.0157 0 0 0 5.3055 5.3029v0.04438h1.3368v-0.04177a6.0157 6.0157 0 0 0 1.7389-0.46475l-0.67363-1.1671a4.6789 4.6789 0 0 1-1.0653 0.28198v-5.2924h-5.2924a4.6789 4.6789 0 0 1 0.28198-1.0653l-1.1619-0.67102zm-4.5222 1.7363v2.6736h1.3368v-1.3368h1.3368v-1.3368h-2.6736zm5.3995 1.3368h3.9582v3.9556a4.6789 4.6789 0 0 1-3.9582-3.9556zm9.2507 0a4.6789 4.6789 0 0 1-0.28198 1.0653l1.1619 0.67102a6.0157 6.0157 0 0 0 0.46736-1.7363h-1.3473zm-0.953 2.2245a4.6789 4.6789 0 0 1-0.77546 0.78329l0.66841 1.1619a6.0157 6.0157 0 0 0 1.2742-1.2742l-1.1671-0.67102zm-13.697 0.44909v1.3368h1.3368v-1.3368h-1.3368zm0 2.6736v1.3368h1.3368v-1.3368h-1.3368zm9.3577 1.3368v1.3368h-1.3368v1.3368h2.6736v-2.6736h-1.3368zm-9.3577 1.3368v1.3368h1.3368v-1.3368h-1.3368zm2.6736 0v1.3368h1.3368v-1.3368h-1.3368zm2.6736 0v1.3368h1.3368v-1.3368h-1.3368z" fill="currentColor"/>
<path class="ColorScheme-Text" d="m12.358 9.6423-3.9556 0.028715a4.6789 4.6789 0 0 0 3.9556 3.9269v-3.9556z" fill="currentColor" fill-opacity=".6" stroke="naone"/>
</svg>
